X:1
T:Fertish Hill, The
T:Fertish Hill, The
T:John Pringle
C:John Pringle
L:1/8
M:6/8
K:E
V:1 treble 
V:1
 B | e2 e g2 e | b3 g2 b |{b} a2 f fga | gec c2 B | e2 e gab | a2 f fga | geB c2 d | e3- e2 :: B | %10
 e2 d cag | f2 e dba | geb bag | fed cde | e>fg edc | Bdf fga | (ge).B c2 d | e3 e2 :| %18

